build/dist/assets/images/services/services-5.svg

<svg width="81" height="65" viewBox="0 0 81 65" fill="none" xmlns="http://www.w3.org/2000/svg">
<path fill-rule="evenodd" clip-rule="evenodd" d="M64.9995 15.8696H58.9125L58.9125 21.9565H64.9995V15.8696ZM58.9125 15C58.4323 15 58.043 15.3893 58.043 15.8696V21.9565C58.043 22.4368 58.4323 22.8261 58.9125 22.8261H64.9995C65.4797 22.8261 65.8691 22.4368 65.8691 21.9565V15.8696C65.8691 15.3893 65.4797 15 64.9995 15H58.9125Z" fill="#009B97"/>
<path fill-rule="evenodd" clip-rule="evenodd" d="M40.216 49.7827C40.4562 49.7827 40.6508 49.5881 40.6508 49.3479V31.3284C40.6531 31.3198 40.6583 31.3005 40.6696 31.2679C40.6919 31.2035 40.7275 31.1152 40.7775 31.0023C40.8771 30.7776 41.0228 30.4806 41.2035 30.1303C41.564 29.4311 42.0522 28.5412 42.5602 27.6355C43.3238 26.2741 44.1244 24.8903 44.5952 24.0764C44.7513 23.8067 44.8711 23.5996 44.9414 23.4767C44.9808 23.4077 45.0202 23.3379 45.0599 23.2675C45.4703 22.5406 45.9203 21.7434 46.8166 21.084C47.7921 20.3664 49.3461 19.7827 52.0467 19.7827H60.6508C60.8909 19.7827 61.0856 19.5881 61.0856 19.3479C61.0856 19.1078 60.8909 18.9132 60.6508 18.9132H52.0467C49.221 18.9132 47.4683 19.5251 46.3014 20.3836C45.2477 21.1587 44.7121 22.1113 44.3051 22.8351C44.2644 22.9076 44.2249 22.9778 44.1864 23.0453C44.1186 23.1638 44.0013 23.3666 43.8477 23.632C43.378 24.4439 42.569 25.8423 41.8018 27.2101C41.2924 28.1183 40.7982 29.0188 40.4306 29.7318C40.2471 30.0876 40.0924 30.4021 39.9825 30.65C39.9278 30.7734 39.8814 30.8866 39.8479 30.9836C39.8202 31.0635 39.7812 31.1861 39.7812 31.3045V49.3479C39.7812 49.5881 39.9759 49.7827 40.216 49.7827Z" fill="#009B97"/>
<path fill-rule="evenodd" clip-rule="evenodd" d="M61.7385 19.7826C62.0987 19.7826 62.3907 19.4906 62.3907 19.1304C62.3907 18.7702 62.0987 18.4782 61.7385 18.4782C61.3784 18.4782 61.0864 18.7702 61.0864 19.1304C61.0864 19.4906 61.3784 19.7826 61.7385 19.7826ZM61.7385 20.6521C62.579 20.6521 63.2603 19.9708 63.2603 19.1304C63.2603 18.2899 62.579 17.6086 61.7385 17.6086C60.8981 17.6086 60.2168 18.2899 60.2168 19.1304C60.2168 19.9708 60.8981 20.6521 61.7385 20.6521Z" fill="#009B97"/>
<path fill-rule="evenodd" clip-rule="evenodd" d="M36.4324 50.9777V57.8448C36.4324 58.1417 36.3552 58.413 36.2442 58.6421C36.0044 59.1374 35.8696 59.6935 35.8696 60.2837C35.8696 62.3673 37.5587 64.0563 39.6423 64.0563C41.7259 64.0563 43.4149 62.3673 43.4149 60.2837C43.4149 59.5984 43.2331 58.9583 42.9155 58.4062C42.7685 58.1505 42.6648 57.8387 42.6648 57.4941V50.9777L36.4324 50.9777ZM35.5628 50.9777C35.5628 50.4975 35.9521 50.1082 36.4324 50.1082H42.6648C43.145 50.1082 43.5344 50.4975 43.5344 50.9777V57.4941C43.5344 57.6627 43.5853 57.8265 43.6693 57.9727C44.0607 58.6532 44.2845 59.4423 44.2845 60.2837C44.2845 62.8475 42.2061 64.9259 39.6423 64.9259C37.0784 64.9259 35 62.8475 35 60.2837C35 59.5595 35.1658 58.874 35.4616 58.2632C35.5249 58.1324 35.5628 57.9901 35.5628 57.8448V50.9777Z" fill="#009B97"/>
<path fill-rule="evenodd" clip-rule="evenodd" d="M39.5652 64.1305C41.6063 64.1305 43.2609 62.4759 43.2609 60.4348C43.2609 58.3938 41.6063 56.7392 39.5652 56.7392C37.5242 56.7392 35.8696 58.3938 35.8696 60.4348C35.8696 62.4759 37.5242 64.1305 39.5652 64.1305ZM39.5652 65.0001C42.0865 65.0001 44.1304 62.9561 44.1304 60.4348C44.1304 57.9135 42.0865 55.8696 39.5652 55.8696C37.0439 55.8696 35 57.9135 35 60.4348C35 62.9561 37.0439 65.0001 39.5652 65.0001Z" fill="#009B97"/>
<path fill-rule="evenodd" clip-rule="evenodd" d="M39.3485 61.087C39.8288 61.087 40.2181 60.6976 40.2181 60.2174C40.2181 59.7372 39.8288 59.3478 39.3485 59.3478C38.8683 59.3478 38.4789 59.7372 38.4789 60.2174C38.4789 60.6976 38.8683 61.087 39.3485 61.087ZM39.3485 61.9565C40.309 61.9565 41.0876 61.1779 41.0876 60.2174C41.0876 59.2569 40.309 58.4783 39.3485 58.4783C38.388 58.4783 37.6094 59.2569 37.6094 60.2174C37.6094 61.1779 38.388 61.9565 39.3485 61.9565Z" fill="#009B97"/>
<path fill-rule="evenodd" clip-rule="evenodd" d="M38.0434 52.8261V54.1305H41.0869V52.8261H38.0434ZM37.6086 51.9565C37.3685 51.9565 37.1738 52.1512 37.1738 52.3913V54.5652C37.1738 54.8054 37.3685 55 37.6086 55H41.5217C41.7618 55 41.9564 54.8054 41.9564 54.5652V52.3913C41.9564 52.1512 41.7618 51.9565 41.5217 51.9565H37.6086Z" fill="#009B97"/>
<path fill-rule="evenodd" clip-rule="evenodd" d="M29.1307 15.2174C27.1969 15.2174 24.7562 16.1773 23.7701 16.6703C23.448 16.8314 23.0562 16.7008 22.8952 16.3787C22.7341 16.0565 22.8647 15.6648 23.1868 15.5037C24.2297 14.9822 26.8905 13.9131 29.1307 13.9131C31.2907 13.9131 33.4659 14.3601 34.3023 14.5882C34.6498 14.683 34.8546 15.0415 34.7599 15.389C34.6651 15.7365 34.3066 15.9414 33.9591 15.8466C33.2012 15.6399 31.1446 15.2174 29.1307 15.2174ZM37.1914 16.4556C37.4681 16.225 37.8794 16.2624 38.1099 16.5391C38.2517 16.7092 38.5396 16.99 38.9022 17.2234C39.2696 17.46 39.6527 17.6087 40.0002 17.6087C40.3478 17.6087 40.7309 17.46 41.0983 17.2234C41.4609 16.99 41.7487 16.7092 41.8905 16.5391C42.1211 16.2624 42.5323 16.225 42.809 16.4556C43.0857 16.6861 43.1231 17.0974 42.8925 17.3741C42.672 17.6387 42.2859 18.0101 41.8043 18.3201C41.3276 18.6271 40.6961 18.9131 40.0002 18.9131C39.3043 18.9131 38.6729 18.6271 38.1961 18.3201C37.7145 18.0101 37.3285 17.6387 37.1079 17.3741C36.8773 17.0974 36.9147 16.6861 37.1914 16.4556Z" fill="#009B97"/>
<path fill-rule="evenodd" clip-rule="evenodd" d="M50.8693 15.2174C52.8031 15.2174 55.2438 16.1773 56.2299 16.6703C56.552 16.8314 56.9438 16.7008 57.1048 16.3787C57.2659 16.0565 57.1353 15.6648 56.8132 15.5037C55.7703 14.9822 53.1095 13.9131 50.8693 13.9131C48.7093 13.9131 46.5341 14.3601 45.6977 14.5882C45.3502 14.683 45.1454 15.0415 45.2401 15.389C45.3349 15.7365 45.6934 15.9414 46.0409 15.8466C46.7988 15.6399 48.8554 15.2174 50.8693 15.2174ZM42.8086 16.4556C42.5319 16.225 42.1206 16.2624 41.8901 16.5391C41.7483 16.7092 41.4604 16.99 41.0978 17.2234C40.7304 17.46 40.3473 17.6087 39.9998 17.6087C39.6522 17.6087 39.2691 17.46 38.9017 17.2234C38.5391 16.99 38.2513 16.7092 38.1095 16.5391C37.8789 16.2624 37.4677 16.225 37.191 16.4556C36.9143 16.6861 36.8769 17.0974 37.1075 17.3741C37.328 17.6387 37.7141 18.0101 38.1957 18.3201C38.6724 18.6271 39.3039 18.9131 39.9998 18.9131C40.6957 18.9131 41.3271 18.6271 41.8039 18.3201C42.2855 18.0101 42.6715 17.6387 42.8921 17.3741C43.1227 17.0974 43.0853 16.6861 42.8086 16.4556Z" fill="#009B97"/>
<path fill-rule="evenodd" clip-rule="evenodd" d="M32.2239 0.00195267C32.5831 0.0295777 32.8518 0.3431 32.8242 0.702225L32.3616 6.71578L32.04 6.883C30.24 7.81901 26.2852 9.84823 25.0395 10.3821L24.9165 10.4348H21.3043C18.7426 10.4348 16.5108 11.8029 13.9394 14.3742C13.0175 15.2961 12.3663 16.793 11.9393 18.3714C11.5188 19.9262 11.34 21.4681 11.3043 22.4036V39.1305C11.3043 39.4907 11.0124 39.7826 10.6522 39.7826C10.292 39.7826 10 39.4907 10 39.1305V22.3793L10.0004 22.3672C10.0383 21.345 10.2294 19.6977 10.6802 18.0308C11.1265 16.381 11.852 14.617 13.0171 13.4519C15.6632 10.8059 18.2139 9.13047 21.3043 9.13047H24.6465C25.8842 8.58149 29.2554 6.85753 31.1167 5.8927L31.5237 0.602186C31.5513 0.243061 31.8648 -0.0256723 32.2239 0.00195267Z" fill="#009B97"/>
<path fill-rule="evenodd" clip-rule="evenodd" d="M47.7761 0.00195267C47.4169 0.0295777 47.1482 0.3431 47.1758 0.702225L47.6384 6.71578L47.96 6.883C49.76 7.81901 53.7148 9.84823 54.9605 10.3821L55.0835 10.4348H58.6957C61.2574 10.4348 63.4892 11.8029 66.0606 14.3742C66.9825 15.2961 67.6337 16.793 68.0607 18.3714C68.4812 19.9262 68.66 21.4681 68.6957 22.4036V39.1305C68.6957 39.4907 68.9876 39.7826 69.3478 39.7826C69.708 39.7826 70 39.4907 70 39.1305V22.3793L69.9996 22.3672C69.9617 21.345 69.7706 19.6977 69.3198 18.0308C68.8735 16.381 68.148 14.617 66.9829 13.4519C64.3368 10.8059 61.7861 9.13047 58.6957 9.13047H55.3535C54.1158 8.58149 50.7446 6.85753 48.8833 5.8927L48.4763 0.602186C48.4487 0.243061 48.1352 -0.0256723 47.7761 0.00195267Z" fill="#009B97"/>
<path fill-rule="evenodd" clip-rule="evenodd" d="M21.7786 39.1833C22.1096 39.3252 22.263 39.7086 22.1211 40.0396C21.5082 41.4697 20.8695 43.9893 20.8695 47.3914C20.8695 48.8822 20.337 51.2814 19.7054 53.6059C19.0665 55.9569 18.3008 58.3197 17.7894 59.7808C17.6704 60.1207 17.2984 60.2999 16.9584 60.1809C16.6184 60.0619 16.4393 59.6898 16.5583 59.3499C17.0614 57.9124 17.8174 55.5796 18.4467 53.2639C19.0831 50.9217 19.5651 48.6832 19.5651 47.3914C19.5651 43.837 20.2308 41.1392 20.9222 39.5258C21.0641 39.1947 21.4475 39.0414 21.7786 39.1833Z" fill="#009B97"/>
<path fill-rule="evenodd" clip-rule="evenodd" d="M58.2214 39.1833C57.8904 39.3252 57.737 39.7086 57.8789 40.0396C58.4918 41.4697 59.1305 43.9893 59.1305 47.3914C59.1305 48.8822 59.663 51.2814 60.2946 53.6059C60.9335 55.9569 61.6992 58.3197 62.2106 59.7808C62.3296 60.1207 62.7016 60.2999 63.0416 60.1809C63.3816 60.0619 63.5607 59.6898 63.4417 59.3499C62.9386 57.9124 62.1826 55.5796 61.5533 53.2639C60.9169 50.9217 60.4349 48.6832 60.4349 47.3914C60.4349 43.837 59.7692 41.1392 59.0778 39.5258C58.9359 39.1947 58.5525 39.0414 58.2214 39.1833Z" fill="#009B97"/>
<path fill-rule="evenodd" clip-rule="evenodd" d="M21.9732 31.0871C22.3333 31.0964 22.6177 31.3957 22.6085 31.7558C22.5724 33.1611 22.5509 35.345 22.603 37.3252C22.6291 38.3161 22.6735 39.2473 22.7425 40.0009C22.8148 40.7899 22.9073 41.2875 22.9907 41.4822C23.3575 42.3379 23.6367 43.8358 23.8266 45.3824C24.0196 46.9539 24.1304 48.6654 24.1304 50C24.1304 51.3613 23.9598 52.4392 23.7917 53.28C23.7499 53.489 23.7082 53.6833 23.67 53.8609L23.6621 53.8977C23.6266 54.0622 23.5949 54.2097 23.5675 54.3466C23.5071 54.6487 23.4783 54.8522 23.4783 55V60C23.4783 60.3601 23.1863 60.6521 22.8261 60.6521C22.4659 60.6521 22.1739 60.3601 22.1739 60V55C22.1739 54.713 22.2266 54.4002 22.2885 54.0908C22.3178 53.944 22.3516 53.7872 22.3864 53.6255L22.3949 53.5864C22.4331 53.409 22.4729 53.2229 22.5127 53.0242C22.6706 52.2347 22.8261 51.2473 22.8261 50C22.8261 48.7258 22.7195 47.0678 22.532 45.5414C22.3415 43.9902 22.0773 42.6621 21.7919 41.996C21.6144 41.582 21.5131 40.8785 21.4436 40.1199C21.3709 39.326 21.3256 38.3632 21.2991 37.3595C21.2462 35.3506 21.2681 33.1431 21.3046 31.7224C21.3138 31.3623 21.6132 31.0779 21.9732 31.0871Z" fill="#009B97"/>
<path fill-rule="evenodd" clip-rule="evenodd" d="M58.0268 31.0871C57.6667 31.0964 57.3823 31.3957 57.3915 31.7558C57.4276 33.1611 57.4491 35.345 57.397 37.3252C57.3709 38.3161 57.3265 39.2473 57.2575 40.0009C57.1852 40.7899 57.0927 41.2875 57.0093 41.4822C56.6425 42.3379 56.3633 43.8358 56.1734 45.3824C55.9804 46.9539 55.8696 48.6654 55.8696 50C55.8696 51.3613 56.0402 52.4392 56.2083 53.28C56.2501 53.489 56.2918 53.6833 56.33 53.8609L56.3379 53.8977C56.3734 54.0622 56.4051 54.2097 56.4325 54.3466C56.4929 54.6487 56.5217 54.8522 56.5217 55V60C56.5217 60.3601 56.8137 60.6521 57.1739 60.6521C57.5341 60.6521 57.8261 60.3601 57.8261 60V55C57.8261 54.713 57.7734 54.4002 57.7115 54.0908C57.6822 53.944 57.6484 53.7872 57.6136 53.6255L57.6051 53.5864C57.5669 53.409 57.5271 53.2229 57.4873 53.0242C57.3294 52.2347 57.1739 51.2473 57.1739 50C57.1739 48.7258 57.2805 47.0678 57.468 45.5414C57.6585 43.9902 57.9227 42.6621 58.2081 41.996C58.3856 41.582 58.4869 40.8785 58.5564 40.1199C58.6291 39.326 58.6744 38.3632 58.7009 37.3595C58.7538 35.3506 58.7319 33.1431 58.6954 31.7224C58.6862 31.3623 58.3868 31.0779 58.0268 31.0871Z" fill="#009B97"/>
<path fill-rule="evenodd" clip-rule="evenodd" d="M19.9604 23.697C20.3199 23.6752 20.629 23.949 20.6508 24.3085C20.72 25.4506 21.0138 27.288 21.6654 29.039C22.3239 30.8086 23.3028 32.3693 24.6644 33.1257C26.4715 34.1297 29.5384 34.5658 32.4576 34.6198C33.8992 34.6465 35.27 34.5796 36.3804 34.454C37.524 34.3247 38.3011 34.1421 38.6212 33.9821C38.9434 33.821 39.3351 33.9516 39.4962 34.2737C39.6573 34.5959 39.5267 34.9876 39.2046 35.1487C38.6551 35.4234 37.6659 35.6213 36.5269 35.7501C35.3547 35.8827 33.9266 35.9516 32.4334 35.924C29.4831 35.8693 26.1369 35.4359 24.031 34.2659C22.2621 33.2832 21.1395 31.3657 20.443 29.4939C19.7395 27.6036 19.4246 25.6367 19.3489 24.3874C19.3271 24.0279 19.6009 23.7188 19.9604 23.697Z" fill="#009B97"/>
<path fill-rule="evenodd" clip-rule="evenodd" d="M60.0396 23.697C59.6801 23.6752 59.371 23.949 59.3492 24.3085C59.28 25.4506 58.9862 27.288 58.3346 29.039C57.6761 30.8086 56.6972 32.3693 55.3356 33.1257C53.5285 34.1297 50.4616 34.5658 47.5424 34.6198C46.1008 34.6465 44.73 34.5796 43.6196 34.454C42.476 34.3247 41.6989 34.1421 41.3788 33.9821C41.0566 33.821 40.6649 33.9516 40.5038 34.2737C40.3427 34.5959 40.4733 34.9876 40.7954 35.1487C41.3449 35.4234 42.3341 35.6213 43.4731 35.7501C44.6453 35.8827 46.0734 35.9516 47.5666 35.924C50.5169 35.8693 53.8631 35.4359 55.969 34.2659C57.7379 33.2832 58.8605 31.3657 59.557 29.4939C60.2605 27.6036 60.5754 25.6367 60.6511 24.3874C60.6729 24.0279 60.3991 23.7188 60.0396 23.697Z" fill="#009B97"/>
</svg>

<svg width="81" height="65" fill="none" xmlns="http://www.w3.org/2000/svg"><path fill-rule="evenodd" clip-rule="evenodd" d="M65 15.87h-6.087v6.086H65V15.87zM58.912 15a.87.87 0 00-.87.87v6.086c0 .48.39.87.87.87H65c.48 0 .87-.39.87-.87V15.87A.87.87 0 0065 15h-6.087z" fill="#009B97"/><path fill-rule="evenodd" clip-rule="evenodd" d="M40.216 49.783c.24 0 .435-.195.435-.435v-18.02a3.622 3.622 0 01.127-.326c.1-.224.245-.521.425-.872.361-.699.85-1.589 1.357-2.494a314.662 314.662 0 012.035-3.56 169.155 169.155 0 00.465-.809c.41-.726.86-1.524 1.757-2.183.975-.718 2.53-1.301 5.23-1.301h8.604a.435.435 0 100-.87h-8.604c-2.826 0-4.579.612-5.746 1.47-1.053.776-1.589 1.728-1.996 2.452a35.768 35.768 0 01-.457.797c-.47.812-1.279 2.21-2.046 3.578a87.334 87.334 0 00-1.371 2.522c-.184.356-.339.67-.448.918a4.391 4.391 0 00-.135.334c-.028.08-.067.202-.067.32v18.044c0 .24.195.435.435.435z" fill="#009B97"/><path fill-rule="evenodd" clip-rule="evenodd" d="M61.739 19.783a.652.652 0 100-1.305.652.652 0 000 1.305zm0 .87a1.522 1.522 0 100-3.044 1.522 1.522 0 000 3.043zM36.432 50.978v6.867c0 .297-.077.568-.188.797a3.773 3.773 0 106.671-.236 1.833 1.833 0 01-.25-.912v-6.516h-6.233zm-.87 0c0-.48.39-.87.87-.87h6.233c.48 0 .87.39.87.87v6.516c0 .169.05.333.134.479a4.642 4.642 0 11-8.208.29.963.963 0 00.102-.418v-6.867z" fill="#009B97"/><path fill-rule="evenodd" clip-rule="evenodd" d="M39.565 64.13a3.696 3.696 0 100-7.39 3.696 3.696 0 000 7.39zm0 .87a4.565 4.565 0 100-9.13 4.565 4.565 0 000 9.13z" fill="#009B97"/><path fill-rule="evenodd" clip-rule="evenodd" d="M39.349 61.087a.87.87 0 100-1.74.87.87 0 000 1.74zm0 .87a1.74 1.74 0 100-3.479 1.74 1.74 0 000 3.478zm-1.306-9.131v1.304h3.044v-1.304h-3.044zm-.434-.87a.435.435 0 00-.435.435v2.174c0 .24.194.435.435.435h3.913c.24 0 .434-.195.434-.435v-2.174a.435.435 0 00-.434-.434h-3.913zM29.13 15.217c-1.933 0-4.374.96-5.36 1.453a.652.652 0 11-.583-1.166c1.043-.522 3.703-1.59 5.944-1.59 2.16 0 4.335.446 5.171.674a.652.652 0 01-.343 1.259c-.758-.207-2.814-.63-4.828-.63zm8.061 1.239a.652.652 0 01.919.083c.142.17.43.451.792.684.368.237.75.386 1.098.386.348 0 .73-.149 1.098-.386.363-.233.65-.514.793-.684a.652.652 0 111.002.835 5.012 5.012 0 01-1.089.946c-.476.307-1.108.593-1.804.593s-1.327-.286-1.804-.593a5.016 5.016 0 01-1.088-.946.652.652 0 01.083-.918z" fill="#009B97"/><path fill-rule="evenodd" clip-rule="evenodd" d="M50.87 15.217c1.933 0 4.374.96 5.36 1.453a.652.652 0 10.583-1.166c-1.043-.522-3.704-1.59-5.944-1.59-2.16 0-4.335.446-5.171.674a.652.652 0 00.343 1.259c.758-.207 2.814-.63 4.828-.63zm-8.061 1.239a.652.652 0 00-.919.083c-.142.17-.43.451-.792.684-.368.237-.75.386-1.098.386-.348 0-.73-.149-1.098-.386a3.722 3.722 0 01-.793-.684.652.652 0 10-1.002.835c.221.265.607.636 1.089.946.476.307 1.108.593 1.804.593s1.327-.286 1.804-.593c.481-.31.867-.681 1.088-.946a.652.652 0 00-.083-.918zM32.224.002c.36.028.628.341.6.7l-.462 6.014-.322.167c-1.8.936-5.755 2.965-7 3.5l-.123.052h-3.613c-2.561 0-4.793 1.368-7.365 3.94-.921.921-1.573 2.418-2 3.996a19.386 19.386 0 00-.635 4.033V39.13a.652.652 0 11-1.304 0V22.367c.038-1.022.23-2.67.68-4.336.447-1.65 1.172-3.414 2.337-4.58 2.646-2.645 5.197-4.32 8.287-4.32h3.343c1.237-.55 4.608-2.273 6.47-3.238l.407-5.29a.652.652 0 01.7-.601z" fill="#009B97"/><path fill-rule="evenodd" clip-rule="evenodd" d="M47.776.002a.652.652 0 00-.6.7l.462 6.014.322.167c1.8.936 5.755 2.965 7 3.5l.123.052h3.613c2.561 0 4.793 1.368 7.365 3.94.921.921 1.573 2.418 2 3.996.42 1.555.599 3.097.635 4.033V39.13a.652.652 0 101.304 0V22.367c-.038-1.022-.23-2.67-.68-4.336-.446-1.65-1.172-3.414-2.337-4.58-2.646-2.645-5.197-4.32-8.287-4.32h-3.343c-1.237-.55-4.608-2.273-6.47-3.238l-.407-5.29a.652.652 0 00-.7-.601zM21.779 39.183a.652.652 0 01.342.857c-.613 1.43-1.252 3.95-1.252 7.351 0 1.491-.532 3.89-1.164 6.215a97.144 97.144 0 01-1.916 6.175.652.652 0 01-1.23-.431 95.869 95.869 0 001.888-6.086c.636-2.342 1.118-4.58 1.118-5.873 0-3.554.666-6.252 1.357-7.865a.652.652 0 01.857-.343zm36.442 0a.652.652 0 00-.342.857c.613 1.43 1.252 3.95 1.252 7.351 0 1.491.532 3.89 1.164 6.215a97.144 97.144 0 001.916 6.175.652.652 0 001.23-.431 95.869 95.869 0 01-1.888-6.086c-.636-2.342-1.118-4.58-1.118-5.873 0-3.554-.666-6.252-1.357-7.865a.652.652 0 00-.857-.343z" fill="#009B97"/><path fill-rule="evenodd" clip-rule="evenodd" d="M21.973 31.087c.36.01.645.309.636.669a114.717 114.717 0 00-.006 5.57c.026.99.07 1.921.14 2.675.072.789.164 1.287.248 1.481.367.856.646 2.354.836 3.9A40.29 40.29 0 0124.13 50c0 1.361-.17 2.44-.338 3.28-.042.209-.084.403-.122.58l-.008.038-.095.449c-.06.302-.089.505-.089.653v5a.652.652 0 01-1.304 0v-5c0-.287.053-.6.114-.91l.098-.465.009-.039c.038-.177.078-.363.118-.562.158-.79.313-1.777.313-3.024a38.99 38.99 0 00-.294-4.459c-.19-1.55-.455-2.879-.74-3.545-.178-.414-.279-1.117-.348-1.876a44.47 44.47 0 01-.145-2.76c-.053-2.01-.03-4.217.006-5.638a.652.652 0 01.668-.635zm36.054 0a.652.652 0 00-.636.669c.037 1.405.058 3.589.006 5.57a42.33 42.33 0 01-.14 2.675c-.072.789-.164 1.287-.248 1.481-.367.856-.646 2.354-.836 3.9A40.29 40.29 0 0055.87 50c0 1.361.17 2.44.338 3.28.042.209.084.403.122.58l.008.038c.035.164.067.312.094.449.06.302.09.505.09.653v5a.652.652 0 001.304 0v-5c0-.287-.053-.6-.114-.91l-.098-.465-.009-.039a39.219 39.219 0 01-.118-.562A14.948 14.948 0 0157.174 50c0-1.274.107-2.932.294-4.459.19-1.55.455-2.879.74-3.545.178-.414.279-1.117.348-1.876a44.47 44.47 0 00.145-2.76c.053-2.01.03-4.217-.006-5.638a.652.652 0 00-.668-.635z" fill="#009B97"/><path fill-rule="evenodd" clip-rule="evenodd" d="M19.96 23.697a.652.652 0 01.69.611c.07 1.143.364 2.98 1.015 4.731.659 1.77 1.638 3.33 3 4.087 1.806 1.004 4.873 1.44 7.793 1.494a30.84 30.84 0 003.922-.166c1.144-.13 1.921-.312 2.241-.472a.652.652 0 01.584 1.167c-.55.274-1.54.472-2.678.601-1.172.133-2.6.202-4.094.174-2.95-.055-6.296-.488-8.402-1.658-1.769-.983-2.891-2.9-3.588-4.772a18.824 18.824 0 01-1.094-5.107.652.652 0 01.611-.69zm40.08 0a.652.652 0 00-.69.611 17.529 17.529 0 01-1.015 4.731c-.659 1.77-1.638 3.33-3 4.087-1.806 1.004-4.873 1.44-7.793 1.494a30.84 30.84 0 01-3.922-.166c-1.144-.13-1.921-.312-2.241-.472a.652.652 0 00-.584 1.167c.55.274 1.54.472 2.678.601 1.172.133 2.6.202 4.094.174 2.95-.055 6.296-.488 8.402-1.658 1.769-.983 2.892-2.9 3.588-4.772a18.824 18.824 0 001.094-5.107.652.652 0 00-.611-.69z" fill="#009B97"/></svg>
